X:2451
T:Cameron Highlanders, The
R:Pipe march
C:J. Scott Skinner
S:sessions
O:Scotland
M:4/4
K:Hp
|:A2ecA2eA| f2e2e2a2| A2ecA2eA| c2B2B2c2|
A2ecA2eA| f2e2e2a2| fa ea ca Ba| c2A2A2 :|*
|:a2 | f2 ea c2 Aa| c2A2A2a2 |f2 ea c2 Aa|c2B2B2A2|
f2 ea c2 Aa| ec ac e2a2| fa ea ca Ba| c2A2A2:|*
|:ec| A<A ec Ae cA|f2e2e2a2| A<A ec Ae cA| c2B2B2 ec|
A<A ec Ae cA |f2e2e2a2| fa ea ca Ba| c2A2A2:|*
a2| fa ea ca Ba| c2A2A2a2|fa ea ca Aa| c2B2B2a2|
fa ea ca Aa|ec ac ef ga| fa ea ca Ba| c2A2A2a2|\
fa ea ca Ba|Aa Ba ca Aa |fa ea ca Aa| c2B2B2ec|\
A<A cA eA cA| eA fA gA aA|fa ea ca Ba|c2A2A2||**


